flaticon/emoticons/stunned.svg

<svg xmlns="http://www.w3.org/2000/svg" width="32" height="32" viewBox="0 0 24 24">
    <path d="M9.316406 12.675781C9.394531 12.753906 9.496094 12.792969 9.597656 12.792969 9.703125 12.792969 9.804688 12.753906 9.882812 12.675781 10.039062 12.519531 10.039062 12.265625 9.882812 12.109375L8.46875 10.695312 9.882812 9.28125C10.039062 9.125 10.039062 8.871094 9.882812 8.714844 9.726562 8.558594 9.472656 8.558594 9.316406 8.714844L7.902344 10.128906 6.488281 8.714844C6.332031 8.558594 6.078125 8.558594 5.921875 8.714844 5.765625 8.871094 5.765625 9.125 5.921875 9.28125L7.335938 10.695312 5.921875 12.109375C5.765625 12.265625 5.765625 12.519531 5.921875 12.675781 6 12.753906 6.101562 12.792969 6.207031 12.792969 6.308594 12.792969 6.410156 12.753906 6.488281 12.675781L7.902344 11.261719zM18.683594 8.714844C18.527344 8.558594 18.273438 8.558594 18.117188 8.714844L16.703125 10.128906 15.289062 8.714844C15.132812 8.558594 14.878906 8.558594 14.722656 8.714844 14.566406 8.871094 14.566406 9.125 14.722656 9.28125L16.136719 10.695312 14.722656 12.109375C14.566406 12.265625 14.566406 12.519531 14.722656 12.675781 14.800781 12.753906 14.902344 12.792969 15.003906 12.792969 15.105469 12.792969 15.210938 12.753906 15.289062 12.675781L16.703125 11.261719 18.117188 12.675781C18.195312 12.753906 18.296875 12.792969 18.398438 12.792969 18.5 12.792969 18.605469 12.753906 18.683594 12.675781 18.839844 12.519531 18.839844 12.265625 18.683594 12.109375L17.265625 10.695312 18.683594 9.28125C18.839844 9.125 18.839844 8.871094 18.683594 8.714844zM12 14.792969C9.351562 14.792969 7.199219 16.945312 7.199219 19.59375 7.199219 19.8125 7.378906 19.992188 7.601562 19.992188 7.820312 19.992188 8 19.8125 8 19.59375 8 17.386719 9.792969 15.59375 12 15.59375 14.203125 15.59375 16 17.386719 16 19.59375 16 19.8125 16.179688 19.992188 16.398438 19.992188 16.621094 19.992188 16.800781 19.8125 16.800781 19.59375 16.800781 16.945312 14.644531 14.792969 12 14.792969zM12 14.792969"/>
    <path d="M 23.917969 10.625 C 23.757812 9.949219 23.371094 9.363281 22.886719 9.066406 C 22.5625 8.867188 22.214844 8.800781 21.882812 8.882812 C 21.808594 8.898438 21.734375 8.925781 21.664062 8.960938 C 20.730469 6.6875 19.273438 5.214844 17.773438 4.265625 L 18.316406 3.179688 C 18.417969 2.980469 18.335938 2.742188 18.140625 2.640625 C 17.941406 2.542969 17.699219 2.621094 17.601562 2.820312 L 17.082031 3.863281 C 16.832031 3.730469 16.589844 3.613281 16.347656 3.503906 L 16.738281 2.324219 C 16.808594 2.117188 16.695312 1.890625 16.488281 1.820312 C 16.277344 1.75 16.050781 1.863281 15.980469 2.074219 L 15.601562 3.210938 C 15.324219 3.109375 15.054688 3.027344 14.796875 2.953125 L 15.140625 1.925781 C 15.210938 1.714844 15.097656 1.488281 14.886719 1.417969 C 14.675781 1.347656 14.449219 1.460938 14.382812 1.671875 L 14.019531 2.761719 C 13.511719 2.65625 13.078125 2.597656 12.757812 2.566406 L 12.757812 1.800781 C 12.757812 1.578125 12.582031 1.398438 12.359375 1.398438 C 12.136719 1.398438 11.960938 1.578125 11.960938 1.800781 L 11.960938 2.535156 C 11.75 2.546875 11.382812 2.574219 10.90625 2.648438 L 10.753906 1.734375 C 10.71875 1.515625 10.511719 1.367188 10.292969 1.40625 C 10.074219 1.441406 9.929688 1.648438 9.964844 1.863281 L 10.121094 2.800781 C 9.691406 2.894531 9.214844 3.03125 8.71875 3.207031 L 8.339844 2.074219 C 8.269531 1.863281 8.042969 1.75 7.832031 1.820312 C 7.625 1.890625 7.511719 2.117188 7.578125 2.324219 L 7.972656 3.503906 C 7.628906 3.65625 7.277344 3.832031 6.925781 4.035156 L 6.316406 2.820312 C 6.21875 2.625 5.976562 2.542969 5.78125 2.640625 C 5.582031 2.742188 5.503906 2.980469 5.601562 3.179688 L 6.242188 4.460938 C 5.890625 4.699219 5.542969 4.972656 5.203125 5.277344 L 4.242188 4.316406 C 4.085938 4.160156 3.832031 4.160156 3.675781 4.316406 C 3.519531 4.472656 3.519531 4.726562 3.675781 4.882812 L 4.632812 5.835938 C 3.402344 7.144531 2.375 8.972656 1.902344 11.523438 C 1.894531 11.554688 1.890625 11.589844 1.886719 11.621094 C 1.785156 11.59375 1.679688 11.574219 1.574219 11.574219 C 0.691406 11.574219 0 12.527344 0 13.742188 C 0 14.960938 0.691406 15.914062 1.574219 15.914062 C 1.738281 15.914062 1.894531 15.871094 2.046875 15.808594 C 2.328125 16.875 2.792969 17.878906 3.429688 18.757812 C 4.726562 20.546875 7.300781 22.675781 12.15625 22.597656 C 12.230469 22.601562 12.300781 22.601562 12.375 22.601562 C 17.09375 22.601562 19.605469 20.519531 20.882812 18.757812 C 22.035156 17.171875 22.621094 15.179688 22.574219 13.128906 C 22.589844 13.128906 22.601562 13.132812 22.617188 13.132812 C 22.707031 13.132812 22.796875 13.125 22.886719 13.101562 C 23.742188 12.898438 24.199219 11.808594 23.917969 10.625 Z M 1.871094 14.996094 C 1.789062 15.0625 1.6875 15.113281 1.574219 15.113281 C 1.207031 15.113281 0.800781 14.550781 0.800781 13.742188 C 0.800781 12.9375 1.207031 12.375 1.574219 12.375 C 1.640625 12.375 1.710938 12.394531 1.777344 12.429688 C 1.757812 12.644531 1.746094 12.855469 1.738281 13.070312 C 1.738281 13.082031 1.738281 13.097656 1.738281 13.109375 C 1.734375 13.289062 1.734375 13.464844 1.738281 13.640625 C 1.742188 13.695312 1.742188 13.75 1.746094 13.804688 C 1.753906 13.949219 1.761719 14.09375 1.777344 14.234375 C 1.78125 14.292969 1.785156 14.347656 1.789062 14.402344 C 1.808594 14.578125 1.832031 14.753906 1.859375 14.925781 C 1.863281 14.949219 1.867188 14.972656 1.871094 14.996094 Z M 20.234375 18.289062 C 18.507812 20.667969 15.796875 21.863281 12.160156 21.800781 L 12.152344 21.800781 C 8.511719 21.84375 5.804688 20.667969 4.078125 18.289062 C 3.253906 17.152344 2.746094 15.785156 2.585938 14.34375 C 2.582031 14.3125 2.582031 14.28125 2.578125 14.25 C 2.558594 14.019531 2.542969 13.789062 2.539062 13.558594 C 2.535156 13.460938 2.539062 13.359375 2.539062 13.257812 C 2.542969 13.09375 2.546875 12.933594 2.558594 12.769531 C 2.566406 12.652344 2.574219 12.535156 2.585938 12.414062 C 2.613281 12.167969 2.640625 11.917969 2.6875 11.667969 C 3.125 9.296875 4.0625 7.601562 5.179688 6.386719 L 5.675781 6.882812 C 5.753906 6.960938 5.855469 7 5.957031 7 C 6.0625 7 6.164062 6.960938 6.242188 6.882812 C 6.398438 6.726562 6.398438 6.472656 6.242188 6.316406 L 5.75 5.824219 C 6.023438 5.578125 6.304688 5.351562 6.585938 5.152344 L 6.800781 5.578125 C 6.871094 5.71875 7.011719 5.800781 7.160156 5.800781 C 7.21875 5.800781 7.28125 5.785156 7.335938 5.757812 C 7.535156 5.660156 7.613281 5.417969 7.515625 5.222656 L 7.261719 4.71875 C 7.582031 4.53125 7.898438 4.367188 8.210938 4.230469 L 8.378906 4.726562 C 8.433594 4.894531 8.589844 5 8.757812 5 C 8.800781 5 8.84375 4.992188 8.882812 4.980469 C 9.09375 4.910156 9.207031 4.683594 9.136719 4.472656 L 8.957031 3.929688 C 9.414062 3.769531 9.851562 3.648438 10.246094 3.5625 L 10.363281 4.265625 C 10.394531 4.460938 10.566406 4.601562 10.757812 4.601562 C 10.777344 4.601562 10.800781 4.597656 10.824219 4.59375 C 11.042969 4.558594 11.1875 4.351562 11.152344 4.136719 L 11.03125 3.417969 C 11.445312 3.359375 11.761719 3.339844 11.957031 3.332031 L 11.957031 4.199219 C 11.957031 4.421875 12.136719 4.601562 12.359375 4.601562 C 12.578125 4.601562 12.757812 4.421875 12.757812 4.199219 L 12.757812 3.355469 C 13.027344 3.378906 13.371094 3.421875 13.769531 3.496094 L 13.578125 4.074219 C 13.507812 4.28125 13.621094 4.507812 13.832031 4.578125 C 13.875 4.59375 13.917969 4.597656 13.957031 4.597656 C 14.125 4.597656 14.28125 4.492188 14.335938 4.324219 L 14.554688 3.675781 C 14.8125 3.746094 15.082031 3.828125 15.359375 3.929688 L 15.179688 4.472656 C 15.109375 4.683594 15.222656 4.910156 15.429688 4.976562 C 15.472656 4.992188 15.515625 5 15.558594 5 C 15.726562 5 15.882812 4.894531 15.9375 4.726562 L 16.105469 4.226562 C 16.3125 4.320312 16.527344 4.425781 16.742188 4.539062 L 16.398438 5.21875 C 16.300781 5.417969 16.382812 5.65625 16.578125 5.757812 C 16.636719 5.785156 16.695312 5.800781 16.757812 5.800781 C 16.902344 5.800781 17.046875 5.71875 17.117188 5.578125 L 17.429688 4.949219 C 18.835938 5.867188 20.199219 7.296875 21.039062 9.535156 L 21.035156 9.539062 L 21.109375 9.746094 C 21.210938 10.039062 21.300781 10.332031 21.382812 10.628906 C 21.394531 10.664062 21.402344 10.703125 21.414062 10.738281 C 21.492188 11.042969 21.5625 11.351562 21.621094 11.667969 C 21.671875 11.933594 21.703125 12.203125 21.730469 12.46875 C 21.734375 12.515625 21.742188 12.558594 21.746094 12.605469 C 21.917969 14.671875 21.386719 16.703125 20.234375 18.289062 Z M 22.699219 12.324219 C 22.644531 12.335938 22.585938 12.335938 22.523438 12.324219 C 22.523438 12.308594 22.519531 12.292969 22.519531 12.277344 C 22.492188 12.027344 22.457031 11.773438 22.410156 11.523438 C 22.355469 11.214844 22.285156 10.917969 22.214844 10.628906 C 22.207031 10.597656 22.195312 10.5625 22.1875 10.527344 C 22.113281 10.253906 22.035156 9.992188 21.953125 9.738281 C 21.949219 9.730469 21.949219 9.722656 21.945312 9.714844 C 21.984375 9.6875 22.027344 9.667969 22.070312 9.660156 C 22.222656 9.621094 22.371094 9.6875 22.46875 9.746094 C 22.769531 9.933594 23.027344 10.339844 23.140625 10.808594 C 23.324219 11.597656 23.054688 12.238281 22.699219 12.324219 Z M 22.699219 12.324219"/>
</svg>

<svg xmlns="http://www.w3.org/2000/svg" width="32" height="32" viewBox="0 0 24 24">
    <path d="M9.316 12.676a.399.399 0 0 0 .566 0 .4.4 0 0 0 0-.567L8.47 10.695l1.414-1.414a.4.4 0 0 0-.567-.566l-1.414 1.414-1.414-1.414a.4.4 0 0 0-.566.566l1.414 1.414-1.414 1.414a.4.4 0 0 0 .566.567l1.414-1.414zm0 0M18.684 8.715a.4.4 0 0 0-.567 0l-1.414 1.414-1.414-1.414a.4.4 0 0 0-.566.566l1.414 1.414-1.414 1.414a.4.4 0 0 0 .566.567l1.414-1.414 1.414 1.414c.078.078.18.117.281.117a.4.4 0 0 0 .285-.684l-1.417-1.414 1.418-1.414a.4.4 0 0 0 0-.566zm0 0M12 14.793a4.805 4.805 0 0 0-4.8 4.8.401.401 0 0 0 .8 0c0-2.206 1.793-4 4-4 2.203 0 4 1.794 4 4a.4.4 0 0 0 .8 0c0-2.648-2.155-4.8-4.8-4.8zm0 0"/>
    <path d="M23.918 10.625c-.16-.676-.547-1.262-1.031-1.559-.325-.199-.672-.265-1.004-.183a.916.916 0 0 0-.219.078c-.934-2.274-2.39-3.746-3.89-4.695l.542-1.086a.401.401 0 0 0-.175-.54.402.402 0 0 0-.54.18l-.519 1.043c-.25-.133-.492-.25-.734-.36l.39-1.179a.4.4 0 1 0-.758-.25l-.378 1.137a11.849 11.849 0 0 0-.805-.258l.344-1.027a.4.4 0 0 0-.254-.508.395.395 0 0 0-.504.254l-.363 1.09a12.012 12.012 0 0 0-1.262-.196v-.765a.398.398 0 1 0-.797 0v.734c-.211.012-.578.04-1.055.113l-.152-.914a.396.396 0 0 0-.461-.328.398.398 0 0 0-.328.457l.156.938c-.43.094-.906.23-1.402.406l-.38-1.133a.4.4 0 0 0-.76.25l.394 1.18c-.344.152-.696.328-1.047.531l-.61-1.215a.402.402 0 0 0-.535-.18.403.403 0 0 0-.18.54l.641 1.28c-.351.24-.699.513-1.039.817l-.96-.96a.4.4 0 0 0-.567.566l.957.953c-1.23 1.309-2.258 3.137-2.73 5.687-.008.032-.012.067-.016.098a1.21 1.21 0 0 0-.313-.047c-.883 0-1.574.953-1.574 2.168 0 1.219.691 2.172 1.574 2.172.164 0 .32-.043.473-.105a8.885 8.885 0 0 0 1.383 2.949c1.297 1.789 3.87 3.918 8.726 3.84.074.004.145.004.219.004 4.719 0 7.23-2.082 8.508-3.844 1.152-1.586 1.738-3.578 1.691-5.63.016 0 .028.005.043.005.09 0 .18-.008.27-.031.855-.204 1.312-1.293 1.031-2.477zM1.871 14.996a.477.477 0 0 1-.297.117c-.367 0-.773-.562-.773-1.37 0-.806.406-1.368.773-1.368a.44.44 0 0 1 .203.055c-.02.215-.03.425-.039.64v.04c-.004.18-.004.355 0 .53.004.055.004.11.008.165.008.144.016.289.031.43l.012.167c.02.176.043.352.07.524l.012.07zm18.363 3.293c-1.726 2.379-4.437 3.574-8.074 3.512h-.008c-3.64.043-6.347-1.133-8.074-3.512-.824-1.137-1.332-2.504-1.492-3.945-.004-.031-.004-.063-.008-.094-.02-.23-.035-.46-.039-.691-.004-.098 0-.2 0-.301a10.2 10.2 0 0 1 .047-.844c.027-.246.055-.496.102-.746.437-2.371 1.374-4.066 2.492-5.281l.496.496a.399.399 0 0 0 .566 0 .4.4 0 0 0 0-.567l-.492-.492a9.26 9.26 0 0 1 .836-.672l.215.426a.4.4 0 0 0 .535.18c.2-.098.277-.34.18-.535l-.254-.504c.32-.188.636-.352.949-.489l.168.497a.397.397 0 0 0 .504.253.4.4 0 0 0 .254-.507l-.18-.543c.457-.16.895-.282 1.29-.368l.116.704a.402.402 0 0 0 .395.336c.02 0 .043-.004.066-.008a.398.398 0 0 0 .328-.457l-.12-.719c.413-.059.73-.078.925-.086v.867a.401.401 0 0 0 .8 0v-.844c.27.024.614.067 1.013.141l-.192.578a.398.398 0 1 0 .758.25l.219-.648c.258.07.527.152.804.254l-.18.543c-.07.21.044.437.25.504a.397.397 0 0 0 .508-.25l.168-.5c.207.093.422.199.637.312l-.344.68a.406.406 0 0 0 .36.582c.144 0 .289-.082.36-.223l.312-.629c1.406.918 2.77 2.348 3.61 4.586l-.005.004.074.207c.102.293.192.586.274.883.012.035.02.074.031.11.078.304.148.613.207.929.05.266.082.535.11.8.003.048.011.09.015.137.172 2.067-.36 4.098-1.512 5.684zm2.465-5.965a.443.443 0 0 1-.176 0c0-.015-.003-.031-.003-.047-.028-.25-.063-.504-.11-.754a14.382 14.382 0 0 0-.195-.894c-.008-.031-.02-.066-.027-.102a17.305 17.305 0 0 0-.235-.789c-.004-.008-.004-.015-.008-.023a.322.322 0 0 1 .125-.055c.153-.039.301.027.399.086.3.188.558.594.672 1.063.183.789-.086 1.43-.442 1.515zm0 0"/>
</svg>
